X:472
T: Polska efter J Adolf Hägg / Nils W Hägg
S: efter [[Personer/J Adolf Hägg]], [[Personer/Nils W Hägg]]
R: Polska
O: Hälsingland
B: http://www.smus.se/earkiv/fmk/browselarge.php?lang=sw&katalogid=Hs+14&bildnr=00017
B: Jämför [[http://www.smus.se/earkiv/fmk/browselarge.php?lang=sw&katalogid=Ma+4&bildnr=00038|SMUS - katalog Ma4 bild 38]] nr 176 ur [[Notböcker/Kumlins notsamling]]
B: Jämför [[http://www.smus.se/earkiv/fmk/browselarge.php?lang=sw&katalogid=M+33a&bildnr=00004|SMUS - katalog M33a bild 4]] nr 8
B: Jämför [[http://www.smus.se/earkiv/fmk/browselarge.php?lang=sw&katalogid=MMD+60&bildnr=00005|SMUS - katalog MMD60 bild 5]] nr 7
B: Jämför [[http://www.sormlandsmusikarkiv.se/noter/schwalbe/schwalbe_notbok_small.pdf|Sörmlands Musikarkiv]] (pdf) nr 18 ur [[Notböcker/Pontus Schwalbes notbok]]
Z: Nils L
M: 3/4
L: 1/16
K: C
c2cG E2EG E2C2 | c2(cd) e2ef g4 | a2(fa) g2(eg) f2(ed) | c2(Bc) (dc)BA G4 |
c2cG E2EG E2C2 | c2(cd) e2ef g4 | a2(fa) g2(eg) f2(ed) | (Bc)dB c8 ::
(eg)(ec) (eg)(ec) (eg)(ec) | (Bd)(BG) (Bd)(BG) (Bd)(BG) | (Ac)(AF) (Ac)(AF) (Ac)(AF) | (EG)(EC) (EG)(EC) G,2b2 |
a2(fa) g2(eg) f2(ed) | BcdB c4 C4 :|
(:musicend:)
(:music:)
